packages/core/src/svgs/tokens/mono/IDRT.svg

<svg width="24" height="24" viewBox="0 0 24 24" fill="none" xmlns="http://www.w3.org/2000/svg">
<path d="M19.2398 5.10414C20.1459 6.05566 20.8552 7.17667 21.3273 8.40291V8.41166C21.83 9.70881 22.0553 11.097 21.9885 12.4867C21.9493 13.365 21.7921 14.234 21.521 15.0704C21.0636 16.4886 20.295 17.7866 19.271 18.8692C18.2471 19.9518 16.994 20.7918 15.6035 21.3274C14.2129 21.8635 12.72 22.082 11.2341 21.9669C9.74822 21.8518 8.30683 21.4062 7.01533 20.6624C6.25014 20.2294 5.54672 19.6955 4.92407 19.0749C3.84382 17.9931 3.02596 16.6781 2.53337 15.2308C2.04077 13.7837 1.88653 12.2428 2.08252 10.7266C2.2785 9.21049 2.81948 7.75947 3.66389 6.48508C4.5083 5.2107 5.63365 4.14687 6.95345 3.37537C7.41309 3.10456 7.89407 2.87169 8.39158 2.67912C10.2366 1.96361 12.2528 1.81212 14.1841 2.24385C16.1153 2.67557 17.875 3.67108 19.2398 5.10414ZM8.46221 6.3779H5.12469V15.7529H6.3747V12.0029H8.46221L10.6753 15.7529H12.3692L9.91593 11.6767C11.191 11.5635 11.6834 10.2122 11.6834 9.02791C11.6834 7.66164 11.0953 6.7404 9.80539 6.5054C9.36264 6.41963 8.9132 6.37693 8.46221 6.3779ZM10.2722 9.17724C10.2722 10.4736 9.05659 10.753 8.17221 10.753H6.3747V7.6279H8.32096C9.12974 7.63165 10.2722 8.05728 10.2722 9.17724ZM13.8747 8.8779H12.6248V18.2529H13.8747V14.4354C14.4003 15.0886 15.4616 15.4229 16.286 15.4135C18.0822 15.4292 19.5172 13.8867 19.4997 12.1117C19.5216 10.3098 18.1548 8.78416 16.286 8.81602C15.4185 8.80353 14.3316 9.1348 13.8747 9.91166V8.8779ZM16.1623 10.1279C17.0891 10.1279 18.2498 10.6979 18.2498 12.1117C18.2498 13.2804 17.5973 14.168 16.286 14.1866C14.9742 14.2055 14.4035 13.4322 14.1785 12.8254C13.7098 11.561 14.6954 10.1279 16.1623 10.1279Z" fill="white"/>
</svg>

<svg xmlns="http://www.w3.org/2000/svg" width="24" height="24" fill="none" viewBox="0 0 24 24">
    <path fill="#fff" d="M19.24 5.104a10 10 0 0 1 2.087 3.299v.009a10 10 0 0 1 .661 4.075 9.8 9.8 0 0 1-.467 2.583 9.99 9.99 0 0 1-10.287 6.897 10 10 0 0 1-4.219-1.305 9.8 9.8 0 0 1-2.09-1.587 10 10 0 0 1 2.028-15.7q.691-.406 1.439-.696A9.99 9.99 0 0 1 19.24 5.104M8.462 6.378H5.125v9.375h1.25v-3.75h2.087l2.213 3.75h1.694l-2.453-4.076c1.275-.114 1.767-1.465 1.767-2.65 0-1.365-.588-2.287-1.878-2.522a7 7 0 0 0-1.343-.127m1.81 2.8c0 1.296-1.215 1.575-2.1 1.575H6.375V7.628H8.32c.809.004 1.951.43 1.951 1.55m3.603-.3h-1.25v9.375h1.25v-3.818c.525.654 1.587.988 2.411.979 1.796.015 3.231-1.527 3.214-3.302.022-1.802-1.345-3.328-3.214-3.296-.868-.012-1.954.319-2.411 1.096zm2.287 1.25c.927 0 2.088.57 2.088 1.984 0 1.168-.653 2.056-1.964 2.075-1.312.019-1.883-.755-2.108-1.362-.468-1.264.517-2.697 1.984-2.697"/>
</svg>
